images/gala.svg

<svg height="250" viewBox="0 0 250 250" width="250" xmlns="http://www.w3.org/2000/svg"><g fill="#060606" fill-rule="evenodd"><path d="m0 184.960938c3.410156 1.613281 7.890625 4.082031 11.085938 5.976562 1.175781.714844 2.507812 1.328125 3.785156 2.042969.695312.378906 1.121094.566406 1.761718.949219.316407.1875.585938.378906.90625.519531.371094.191406.585938.285156.957032.476562l41.046875 22.484375c.585937.285156 1.117187.617188 1.757812.949219l37.261719 20.445313c.425781.238281.585938.285156.957031.523437l17.804688 9.722656c.800781.378907 1.121093.855469 2.027343.902344v-123.816406l-5.652343-2.890625c-.53125-.238282-.851563-.429688-1.386719-.710938l-4.421875-2.277344c-6.292969-2.941406-12.15625-6.546874-18.5-9.488281-.636719-.285156-.851563-.476562-1.542969-.761719l-5.652344-2.890624c-1.386718-.761719-7.675781-4.128907-8.792968-4.367188v19.546875l23.132812 11.90625c.640625.332031 1.066406.570313 1.652344.855469.640625.28125.960938.613281 1.757812.757812v83.824219c-4.050781-2.421875-8.367187-4.601563-12.523437-6.832031l-10.078125-5.550782c-4.101562-2.464843-8.527344-4.507812-12.632812-6.925781-.480469-.285156-.746094-.378906-1.226563-.664062l-8.898437-4.886719c-.960938-.472656-1.652344-.851562-2.558594-1.421875-3.253906-1.945313-6.769532-3.652344-10.078125-5.550781-.90625-.523438-1.652344-.855469-2.558594-1.375-4.902344-2.941406-10.179687-5.597656-15.191406-8.300782-.425781-.238281-.796875-.476562-1.171875-.714843l-3.890625-2.132813v-100.617187c-.746094-.425781-1.492188-.804688-2.34375-1.234375-.855469-.425782-1.496094-.757813-2.347657-1.234375l-11.992187-6.070313c-.90625-.425781-1.601563-.902344-2.453125-1.28125zm0 0"/><path d="m130.863281 125.949219v47.582031l7.089844-3.558594c3.25-1.519531 6.238281-3.371094 9.488281-4.886718.585938-.285157.800782-.378907 1.226563-.664063.425781-.238281.851562-.378906 1.277343-.570313v-28.035156c.640626-.144531.855469-.238281 1.335938-.523437.476562-.285157.796875-.378907 1.277344-.617188 2.503906-1.277343 4.957031-2.796875 7.515625-3.9375 3.464843-1.515625 6.769531-3.414062 10.074219-5.167969.855468-.429687 1.546874-.808593 2.453124-1.28125l5.011719-2.515624c.53125-.285157.691407-.378907 1.226563-.664063 2.183594-.996094 4.210937-2.324219 6.449218-3.367187l2.449219-1.28125c.429688-.238282.855469-.378907 1.28125-.570313l16.363281-8.441406c3.464844-1.613281 6.664063-3.558594 10.074219-5.171875l5.066407-2.65625c1.703124-.902344 3.355468-1.707032 5.0625-2.65625.90625-.476563 1.652343-.808594 2.453124-1.28125l2.664063-1.328125v81.167969c-.746094.140624-.960937.378906-1.597656.710937l-4.691407 2.5625c-.480468.28125-.851562.519531-1.441406.851563-.636718.332031-1.0625.617187-1.597656.902343-.585938.285157-.90625.519531-1.492188.804688l-4.746093 2.515625c-4.261719 2.183594-8.261719 4.648437-12.523438 6.832031l-12.476562 6.878906c-.585938.332031-.90625.472657-1.492188.804688-5.59375 3.367187-11.566406 6.167969-17.214843 9.441406-1.015626.617187-2.078126 1.136719-3.09375 1.707031l-15.617188 8.539063c-.480469.238281-1.011719.523437-1.492188.804687-4.636718 2.707032-9.488281 5.03125-14.125 7.734375l-6.34375 3.460938v19.925781c1.066407-.238281 2.769532-1.375 3.730469-1.898438 1.28125-.710937 2.503907-1.28125 3.785157-2.039062 3.570312-2.132812 7.460937-3.890625 11.035156-6.023438.691406-.378906 1.222656-.710937 1.863281-1.042968l9.4375-5.171875c.636719-.332031 1.117187-.617188 1.757813-.949219l50.210937-27.515625c.695313-.378906 1.28125-.710937 1.867187-1.042969l33.527344-18.359375c.640625-.378906 1.28125-.710937 1.921875-.996093v-119.921876c-.960937.1875-1.121093.472657-1.867187.851563-.691406.332031-1.171875.570313-1.8125.902344l-11.140625 5.742187c-3.785157 1.800782-7.300781 4.03125-11.140625 5.738282l-29.796875 15.273437c-1.332031.664063-2.398438 1.28125-3.679688 1.945313l-5.488281 2.847656c-3.890625 1.753906-9.542969 4.742187-13.113281 6.734375-.640625.382812-1.171875.523437-1.8125.902343l-12.101563 6.261719c-.53125.238281-.425781.238281-.957031.523438l-3.785156 1.847656c-2.238281 1.046875-4.210938 2.324219-6.449219 3.371094-.535156.234375-.535156.332031-.960938.519531l-3.785156 1.851562c-2.503906 1.089844-9.113281 5.21875-11.140625 5.597657zm0 0"/><path d="m7.410156 56.878906c.746094.140625 1.171875.519532 1.863282.855469 2.507812 1.183594 4.746093 2.605469 7.304687 3.746094l20.253906 10.4375c9.648438 5.214843 19.671875 9.867187 29.371094 15.082031l1.8125.902344c.695313.332031 1.175781.617187 1.8125.902344l11.035156 5.691406c.480469.238281.425781.238281.800781.429687 5.167969 2.796875 10.605469 5.167969 15.722657 8.0625l16.417969 8.398438c.640624.332031 1.121093.613281 1.761718.945312 1.917969 1.046875 8.792969 4.746094 9.488282 4.746094 1.011718 0 6.875-3.320313 8.367187-4.128906l2.878906-1.515625c.960938-.523438 1.8125-.855469 2.773438-1.375 1.011719-.523438 1.757812-.902344 2.769531-1.425782l5.597656-2.941406c.960938-.519531 1.8125-.898437 2.71875-1.421875l8.476563-4.269531c.53125-.238281.90625-.472656 1.382812-.710938.480469-.285156.800781-.425781 1.386719-.710937l5.652344-2.894531c.90625-.476563 1.917968-1.1875 2.984375-1.421875-.160157-.570313-.265625-.523438-.800781-.808594l-18.070313-9.25c-7.195313 3.367187-14.019531 7.304687-21.160156 10.769531-.585938.285156-1.066407.566406-1.601563.898438-1.117187.617187-2.128906 1.140625-3.304687 1.710937l-10.875-5.597656c-3.78125-1.710937-7.246094-3.9375-11.03125-5.695313-.855469-.425781-1.707031-.898437-2.453125-1.28125l-22.066406-11.289062c-.429688-.238281-.800782-.425781-1.226563-.664062-.480469-.285157-.800781-.378907-1.28125-.617188l-28.25-14.515625c-.535156-.285156-.585937-.425781-1.332031-.570313.585937-.757812 1.277344-.804687 2.238281-1.328124.796875-.472657 1.546875-.710938 2.398437-1.136719l24.574219-11.8125c.53125-.285157.53125-.332031 1.066407-.570313.53125-.238281.796874-.332031 1.277343-.617187.851563-.472657 1.707031-.804688 2.558594-1.183594l30.652344-14.707031c.53125-.238282.691406-.378906 1.222656-.664063l12.476563-5.929687c.691406 0 10.125 4.886718 12.3125 5.882812.53125.238282.90625.378906 1.4375.664063.640624.332031.800781.472656 1.546874.757812l33.902344 16.273438c2.984375 1.660156 12.046875 5.882812 15.246094 7.304687 3.625 1.613282 7.089844 3.558594 10.714844 5.171875l20.148437 9.722657c.691407.332031.90625.425781 1.546875.757812 2.398438 1.28125 2.449219.191406 6.339844-1.707031l7.199219-3.652344c1.277343-.617187 6.128906-3.367187 7.246093-3.605469-.210937-.617187-.851562-.851562-1.492187-1.183594l-7.300781-3.558593c-3.679688-1.660157-7.355469-3.699219-11.035156-5.265625l-7.300782-3.558594c-2.507812-1.140625-5.011718-2.183594-7.359375-3.511719l-36.832031-17.695312c-.746094-.332031-1.171875-.519531-1.8125-.898438l-14.820312-7.117187c-.691407-.332032-1.117188-.570313-1.808594-.902344-.375-.1875-.535156-.234375-.855469-.378906l-19.457031-9.390625c-1.222656-.664063-6.929688-3.511719-7.621094-3.511719-.585938 0-4.691406 2.183594-5.597656 2.5625l-42.164063 20.304688c-.691406.28125-1.226562.519531-1.863281.851562l-29.53125 14.183594c-.695312.332031-1.015625.570312-1.8125.902344l-2.667969 1.28125c-.53125.238281-.53125.332031-.957031.519531-.585938.332031-1.226562.476562-1.867188.855469l-5.648437 2.703124c-.746094.332032-1.121094.617188-1.8125.902344l-8.582031 4.175782c-.320313.140624-.320313.09375-.585938.234374-1.226562.617188-2.507812 1.046876-3.679687 1.757813-.691407.378906-1.121094.519531-1.867188.851563l-8.261719 4.082031c-.640624.332031-.480468.046875-.691406.710937zm0 0"/></g></svg>

<!-- Generator: Adobe Illustrator 26.0.1, SVG Export Plug-In . SVG Version: 6.00 Build 0)  -->
<svg xmlns="http://www.w3.org/2000/svg" xmlns:xlink="http://www.w3.org/1999/xlink" width="250px" height="250px" viewBox="0 0 250 250" version="1.1">
<g id="surface1">
<path style=" stroke:none;fill-rule:evenodd;fill:rgb(2.352941%,2.352941%,2.352941%);fill-opacity:1;" d="M 0 184.960938 C 3.410156 186.574219 7.890625 189.042969 11.085938 190.9375 C 12.261719 191.652344 13.59375 192.265625 14.871094 192.980469 C 15.566406 193.359375 15.992188 193.546875 16.632812 193.929688 C 16.949219 194.117188 17.21875 194.308594 17.539062 194.449219 C 17.910156 194.640625 18.125 194.734375 18.496094 194.925781 L 59.542969 217.410156 C 60.128906 217.695312 60.660156 218.027344 61.300781 218.359375 L 98.5625 238.804688 C 98.988281 239.042969 99.148438 239.089844 99.519531 239.328125 L 117.324219 249.050781 C 118.125 249.429688 118.445312 249.90625 119.351562 249.953125 L 119.351562 126.136719 L 113.699219 123.246094 C 113.167969 123.007812 112.847656 122.816406 112.3125 122.535156 L 107.890625 120.257812 C 101.597656 117.316406 95.734375 113.710938 89.390625 110.769531 C 88.753906 110.484375 88.539062 110.292969 87.847656 110.007812 L 82.195312 107.117188 C 80.808594 106.355469 74.519531 102.988281 73.402344 102.75 L 73.402344 122.296875 L 96.535156 134.203125 C 97.175781 134.535156 97.601562 134.773438 98.1875 135.058594 C 98.828125 135.339844 99.148438 135.671875 99.945312 135.816406 L 99.945312 219.640625 C 95.894531 217.21875 91.578125 215.039062 87.421875 212.808594 L 77.34375 207.257812 C 73.242188 204.792969 68.816406 202.75 64.710938 200.332031 C 64.230469 200.046875 63.964844 199.953125 63.484375 199.667969 L 54.585938 194.78125 C 53.625 194.308594 52.933594 193.929688 52.027344 193.359375 C 48.773438 191.414062 45.257812 189.707031 41.949219 187.808594 C 41.042969 187.285156 40.296875 186.953125 39.390625 186.433594 C 34.488281 183.492188 29.210938 180.835938 24.199219 178.132812 C 23.773438 177.894531 23.402344 177.65625 23.027344 177.417969 L 19.136719 175.285156 L 19.136719 74.667969 C 18.390625 74.242188 17.644531 73.863281 16.792969 73.433594 C 15.9375 73.007812 15.296875 72.675781 14.445312 72.199219 L 2.453125 66.128906 C 1.546875 65.703125 0.851562 65.226562 0 64.847656 Z M 0 184.960938 "/>
<path style=" stroke:none;fill-rule:evenodd;fill:rgb(2.352941%,2.352941%,2.352941%);fill-opacity:1;" d="M 130.863281 125.949219 L 130.863281 173.53125 L 137.953125 169.972656 C 141.203125 168.453125 144.191406 166.601562 147.441406 165.085938 C 148.027344 164.800781 148.242188 164.707031 148.667969 164.421875 C 149.09375 164.183594 149.519531 164.042969 149.945312 163.851562 L 149.945312 135.816406 C 150.585938 135.671875 150.800781 135.578125 151.28125 135.292969 C 151.757812 135.007812 152.078125 134.914062 152.558594 134.675781 C 155.0625 133.398438 157.515625 131.878906 160.074219 130.738281 C 163.539062 129.222656 166.84375 127.324219 170.148438 125.570312 C 171.003906 125.140625 171.695312 124.761719 172.601562 124.289062 L 177.613281 121.773438 C 178.144531 121.488281 178.304688 121.394531 178.839844 121.109375 C 181.023438 120.113281 183.050781 118.785156 185.289062 117.742188 L 187.738281 116.460938 C 188.167969 116.222656 188.59375 116.082031 189.019531 115.890625 L 205.382812 107.449219 C 208.847656 105.835938 212.046875 103.890625 215.457031 102.277344 L 220.523438 99.621094 C 222.226562 98.71875 223.878906 97.914062 225.585938 96.964844 C 226.492188 96.488281 227.238281 96.15625 228.039062 95.683594 L 230.703125 94.355469 L 230.703125 175.523438 C 229.957031 175.664062 229.742188 175.902344 229.105469 176.234375 L 224.414062 178.796875 C 223.933594 179.078125 223.5625 179.316406 222.972656 179.648438 C 222.335938 179.980469 221.910156 180.265625 221.375 180.550781 C 220.789062 180.835938 220.46875 181.070312 219.882812 181.355469 L 215.136719 183.871094 C 210.875 186.054688 206.875 188.519531 202.613281 190.703125 L 190.136719 197.582031 C 189.550781 197.914062 189.230469 198.054688 188.644531 198.386719 C 183.050781 201.753906 177.078125 204.554688 171.429688 207.828125 C 170.414062 208.445312 169.351562 208.964844 168.335938 209.535156 L 152.71875 218.074219 C 152.238281 218.3125 151.707031 218.597656 151.226562 218.878906 C 146.589844 221.585938 141.738281 223.910156 137.101562 226.613281 L 130.757812 230.074219 L 130.757812 250 C 131.824219 249.761719 133.527344 248.625 134.488281 248.101562 C 135.769531 247.390625 136.992188 246.820312 138.273438 246.0625 C 141.84375 243.929688 145.734375 242.171875 149.308594 240.039062 C 150 239.660156 150.53125 239.328125 151.171875 238.996094 L 160.609375 233.824219 C 161.246094 233.492188 161.726562 233.207031 162.367188 232.875 L 212.578125 205.359375 C 213.273438 204.980469 213.859375 204.648438 214.445312 204.316406 L 247.972656 185.957031 C 248.613281 185.578125 249.253906 185.246094 249.894531 184.960938 L 249.894531 65.039062 C 248.933594 65.226562 248.773438 65.511719 248.027344 65.890625 C 247.335938 66.222656 246.855469 66.460938 246.214844 66.792969 L 235.074219 72.535156 C 231.289062 74.335938 227.773438 76.566406 223.933594 78.273438 L 194.136719 93.546875 C 192.804688 94.210938 191.738281 94.828125 190.457031 95.492188 L 184.96875 98.339844 C 181.078125 100.09375 175.425781 103.082031 171.855469 105.074219 C 171.214844 105.457031 170.683594 105.597656 170.042969 105.976562 L 157.941406 112.238281 C 157.410156 112.476562 157.515625 112.476562 156.984375 112.761719 L 153.199219 114.609375 C 150.960938 115.65625 148.988281 116.933594 146.75 117.980469 C 146.214844 118.214844 146.214844 118.3125 145.789062 118.5 L 142.003906 120.351562 C 139.5 121.441406 132.890625 125.570312 130.863281 125.949219 Z M 130.863281 125.949219 "/>
<path style=" stroke:none;fill-rule:evenodd;fill:rgb(2.352941%,2.352941%,2.352941%);fill-opacity:1;" d="M 7.410156 56.878906 C 8.15625 57.019531 8.582031 57.398438 9.273438 57.734375 C 11.78125 58.917969 14.019531 60.339844 16.578125 61.480469 L 36.832031 71.917969 C 46.480469 77.132812 56.503906 81.785156 66.203125 87 L 68.015625 87.902344 C 68.710938 88.234375 69.191406 88.519531 69.828125 88.804688 L 80.863281 94.496094 C 81.34375 94.734375 81.289062 94.734375 81.664062 94.925781 C 86.832031 97.722656 92.269531 100.09375 97.386719 102.988281 L 113.804688 111.386719 C 114.445312 111.71875 114.925781 112 115.566406 112.332031 C 117.484375 113.378906 124.359375 117.078125 125.054688 117.078125 C 126.066406 117.078125 131.929688 113.757812 133.421875 112.949219 L 136.300781 111.433594 C 137.261719 110.910156 138.113281 110.578125 139.074219 110.058594 C 140.085938 109.535156 140.832031 109.15625 141.84375 108.632812 L 147.441406 105.691406 C 148.402344 105.171875 149.253906 104.792969 150.160156 104.269531 L 158.636719 100 C 159.167969 99.761719 159.542969 99.527344 160.019531 99.289062 C 160.5 99.003906 160.820312 98.863281 161.40625 98.578125 L 167.058594 95.683594 C 167.964844 95.207031 168.976562 94.496094 170.042969 94.261719 C 169.882812 93.691406 169.777344 93.738281 169.242188 93.453125 L 151.171875 84.203125 C 143.976562 87.570312 137.152344 91.507812 130.011719 94.972656 C 129.425781 95.257812 128.945312 95.539062 128.410156 95.871094 C 127.292969 96.488281 126.28125 97.011719 125.105469 97.582031 L 114.230469 91.984375 C 110.449219 90.273438 106.984375 88.046875 103.199219 86.289062 C 102.34375 85.863281 101.492188 85.390625 100.746094 85.007812 L 78.679688 73.71875 C 78.25 73.480469 77.878906 73.292969 77.453125 73.054688 C 76.972656 72.769531 76.652344 72.675781 76.171875 72.4375 L 47.921875 57.921875 C 47.386719 57.636719 47.335938 57.496094 46.589844 57.351562 C 47.175781 56.59375 47.867188 56.546875 48.828125 56.023438 C 49.625 55.550781 50.375 55.3125 51.226562 54.886719 L 75.800781 43.074219 C 76.332031 42.789062 76.332031 42.742188 76.867188 42.503906 C 77.398438 42.265625 77.664062 42.171875 78.144531 41.886719 C 78.996094 41.414062 79.851562 41.082031 80.703125 40.703125 L 111.355469 25.996094 C 111.886719 25.757812 112.046875 25.617188 112.578125 25.332031 L 125.054688 19.402344 C 125.746094 19.402344 135.179688 24.289062 137.367188 25.285156 C 137.898438 25.523438 138.273438 25.664062 138.804688 25.949219 C 139.445312 26.28125 139.605469 26.421875 140.351562 26.707031 L 174.253906 42.980469 C 177.238281 44.640625 186.300781 48.863281 189.5 50.285156 C 193.125 51.898438 196.589844 53.84375 200.214844 55.457031 L 220.363281 65.179688 C 221.054688 65.511719 221.269531 65.605469 221.910156 65.9375 C 224.308594 67.21875 224.359375 66.128906 228.25 64.230469 L 235.449219 60.578125 C 236.726562 59.960938 241.578125 57.210938 242.695312 56.972656 C 242.484375 56.355469 241.84375 56.121094 241.203125 55.789062 L 233.902344 52.230469 C 230.222656 50.570312 226.546875 48.53125 222.867188 46.964844 L 215.566406 43.40625 C 213.058594 42.265625 210.554688 41.222656 208.207031 39.894531 L 171.375 22.199219 C 170.628906 21.867188 170.203125 21.679688 169.5625 21.300781 L 154.742188 14.183594 C 154.050781 13.851562 153.625 13.613281 152.933594 13.28125 C 152.558594 13.09375 152.398438 13.046875 152.078125 12.902344 L 132.621094 3.511719 C 131.398438 2.847656 125.691406 0 125 0 C 124.414062 0 120.308594 2.183594 119.402344 2.5625 L 77.238281 22.867188 C 76.546875 23.148438 76.011719 23.386719 75.375 23.71875 L 45.84375 37.902344 C 45.148438 38.234375 44.828125 38.472656 44.03125 38.804688 L 41.363281 40.085938 C 40.832031 40.324219 40.832031 40.417969 40.40625 40.605469 C 39.820312 40.9375 39.179688 41.082031 38.539062 41.460938 L 32.890625 44.164062 C 32.144531 44.496094 31.769531 44.78125 31.078125 45.066406 L 22.496094 49.242188 C 22.175781 49.382812 22.175781 49.335938 21.910156 49.476562 C 20.683594 50.09375 19.402344 50.523438 18.230469 51.234375 C 17.539062 51.613281 17.109375 51.753906 16.363281 52.085938 L 8.101562 56.167969 C 7.460938 56.5 7.621094 56.214844 7.410156 56.878906 Z M 7.410156 56.878906 "/>
</g>
</svg>
